X:1
T:Title
%%score 1 2
L:1/8
M:4/2
K:C
V:1 treble nm="Part_1"
V:2 treble-8 nm="Part_2"
V:1
 c8 c8 | d6 c2 _B4 A4 | A4 c4 _B4 G4- | G2 ^F2 F2 E2 G8 | z4 F4 A4 c4- | c2 A2 B4 c8 | z4 c4 B8 | %7
 A8 z4 F4- | F4 A6 B2 c2 d2 | c8 A8 | _B6 A2 G4 F4- | F4 E4 !fermata![FA]8 || A8 B4 d4- | %13
 d4 c4 B6 G2 | A8 E8 | F4 G4 E4 C4 | D8 C8 | z4 c8 B4 | d6 c2 A8 | B4 B4 c4 A4 | B4 d4 c2 B2 A4- | %21
 A4 ^G4 A8 | D8 E8 | A4 _B4 A4 F4- | F2 E2 E2 D2 F8 | z4 _B4 A6 G2 | F2 E2 E8 C4 | D8 C8 | %28
 z4 F4 E4 D4 | F6 G2 A4 B4 | c4 d6 c2 c4- | c2 B2 B2 A2 c8 || z8 F8 | A8 c8 | B4 d6 c2 B2 c2 | %35
 A8 z4 A4- | A4 F4 G6 F2 | E4 A8 ^G4 | A8 z4 B4 | c4 A4 G8 | A4 c4 c4 B4 | A8 z4 d4 | c4 e8 c4 | %43
 B4 A2 B2 c8 | z8 G8 | A8 _B8 | c4 A8 G4 | A6 GF E8 | z8 F8 | A8 c6 B2 | G4 A6 F2 F4- | %51
 F4 E4 !fermata![FA]8 || c8 c8 | B4 A6 G2 F2 E2 | E4 A8 c4- | c4 e4 d4 c4 | B6 A2 c8 | %57
 z4 G4 A4 c4 | B4 A6 G2 F4 | E4 A4 G4 F2 G2 | A8 z4 G4- | G4 E8 F4 | G8 E8 | F4 A6 B2 c2 B2 | %64
 G4 c8 B4 | c8 f8- | f4 e8 d4- | d2 c2 c6 B2 B2 A2 | c8 z4 F4 | G8 A4 c4- | c4 B2 A2 G2 F2 E4- | %71
 E4 D2 E2 [FA]8 || c8 A6 G2 | A4 E8 A4- | A2 B2 c8 B4 | B4 A4 c4 A4 | G4 E4 D4 A4 | G4 F2 G2 A8 | %78
 z4 A4 c6 B2 | G4 A8 F4- | F4 D4 E6 F2 | G4 A4 G4 E4 | D6 C2 C8 | z4 A8 G4 | A6 B2 c8 | z4 A8 c4- | %86
 c4 e4 f2 e2 d2 c2 | B4 A2 B2 c8 | z8 A8 | c8 G8 | G8 F8 | E4 G4 F4 E4- | E4 A4 B4 A4- | A4 G4 A8 | %94
 z4 A4 c6 B2 | A8 z4 G4 | A4 c4 B4 A2 B2 | c8 _B4 A4- | A4 F4 D4 G4- | G2 E2 F4 G8 | d8 c6 A2 | %101
 B4 A8 G4 | A8 _B4 c4- | c2 B2 A2 G2 _B2 A2 G2 F2 | F8 G8 | A4 F6 D2 E4 | F8 F8 || F8 E8 | %108
 F4 A6 G2 F2 E2 | E4 A4 B2 c2 A4- | A4 G4 A8 | z4 e8 d4 | e4 c6 A2 B4 | c8 z4 G4 | A8 c6 B2 | %115
 A2 G2 G12- | G4 E4 F4 G4 | A4 ^F4 G8 | z4 F4 A4 c4 | B4 A4 c8 | F8 A8 | d6 c2 B2 A2 A4- | %122
 A4 F8 E4 | F8 z4 c4 | _B8 A6 F2 | E8 F6 G2 | A2 _B2 A8 G4 | E4 A6 ^G2 G2 ^F2 | A8 c6 B2 | G8 F8 | %130
 z4 E4 F4 A4- | A4 G4 F6 E2 | D4 G8 F4 | G4 _B4 A4 G2 F2 | E16 || c8 c6 B2 | G4 A8 d4 | %137
 e6 d2 B4 A2 B2 | c8 z4 d4 | e8 d8 | c4 B4 B4 d4 | c6 A2 B4 A4- | A4 ^G4 !fermata![Ac]8 || c8 B8 | %144
 A4 d6 c2 c4- | c2 A2 B4 c8 | z4 A6 A2 A4 | A4 c8 A4 | _B6 G2 F8 | G8 A8 | d12 c4 | _B4 A4 A8 | %152
 F8 E4 G4- | G2 F2 E2 D2 C8 | z4 G8 F4 | D4 E4 F8 || (3:2:5c8 d4 c4 B6 A2 | A8 B8 | %158
 (3:2:7c4 d2 c2 B2 A2 A8 G4 | A8 (3z4 z4 c4 | (3:2:5d6 c2 B2 A2 A12- | (3:2:2A4 F8 E8 | %162
 (3:2:6G2 _B2 A2 F6 E8 D4 | F8 (3z4 z4 _B4 | (3:2:4A8 F4 G8 _B4 | (3:2:6A4 F4 A4 _B4 d6 c2 | %166
 (3c4 B6 A2 !fermata![Ac]8 |] %167
V:2
 C8 F8 | F8 G8 | F8 _B8 | A8 G8 | A8 F8 | G8 F8 | A8 G8 | F8 A8 | A8 F8 | F8 F8 | D8 F8 | G8 F8 || %12
 A8 G8 | F8 G8 | F8 G8 | A8 c8 | B8 c8 | A8 G8 | F8 F8 | G8 A8 | G8 F8 | E8 D8 | F8 G8 | F8 A8 | %24
 G8 F8 | G8 F8 | A8 c8 | B8 c8 | A8 G8 | F8 F8 | D8 G8 | G8 F8 || F8 A8 | c8 A8 | G8 F8 | F8 c8 | %36
 d8 B8 | c8 B8 | A8 G8 | A8 c8 | F8 c8 | d8 B8 | c8 A8 | G8 F8 | G8 _B8 | F8 G8 | F8 E8 | D8 C8 | %48
 F8 A8 | c8 A8 | B8 A8 | G8 F4 F4 || F8 c8 | c8 A8 | c8 f8 | c8 d8 | d8 c8 | B8 c8 | d8 d8 | %59
 c8 B8 | A8 B8 | c8 A8 | B8 c8 | F8 F8 | c8 d8 | c8 d8 | e8 f8 | e8 d8 | c8 A8 | _B8 A8 | G8 F8 | %71
 G8 F8 || F8 c8 | c8 A8 | c8 d8 | d8 c8 | c8 B8 | c8 F8 | c8 A8 | c8 d8 | d8 c8 | c8 c8 | B8 c8 | %83
 F8 c8 | c8 A8 | c8 f8 | c8 d8 | d8 c8 | d8 f8 | c8 c8 | B8 A8 | G8 A8 | c8 c8 | c8 A8 | c8 c8 | %95
 d8 e8 | f8 d8 | c8 d8 | A8 _B8 | A8 G8 | _B8 A8 | c8 c8 | F8 F8 | A8 G8 | A8 _B8 | A8 G8 | %106
 F8 F8 || F8 G8 | F8 G8 | A8 c8 | c8 A8 | c8 c8 | c8 d8 | c8 B8 | c8 A8 | c8 B8 | c8 B8 | A8 G8 | %118
 A8 F8 | G8 F8 | A8 c8 | B8 c8 | A8 G8 | F8 F8 | G8 F8 | G8 A8 | c8 c8 | c8 B8 | A8 A8 | c8 A8 | %130
 G8 F8 | G8 A8 | _B8 A8 | G16 | A16 || F8 A8 | c8 F8 | c8 d8 | c8 B8 | c8 B8 | A8 G8 | c8 c8 | %142
 B8 A8 || F8 G8 | F8 E8 | D8 C8 | D8 F8 | F8 F8 | G8 A8 | c8 A8 | _B8 A8 | G8 F8 | F8 G8 | G8 A8 | %154
 _B8 A8 | G8 F4 F4 || F8 G8 | F8 G8 | A8 B8 | A8 A8 | G8 F8 | A8 c8 | A8 G8 | F8 G8 | D8 E8 | %165
 F8 G8 | G8 F8 |] %167

